packages/ui-icons/svg/Line/linkedin.svg

<svg viewBox="0 0 1920 1920" version="1.1" xmlns="http://www.w3.org/2000/svg">
    <path d="M1168,601.321321 L1168,676.276276 C1240.31231,631.351351 1323.7958,605.165165 1450.64264,605.165165 C1863.4955,605.165165 1916.34835,913.753754 1916.34835,1182.58258 L1916.34835,1182.58258 L1916.34835,1915.7958 L1438.99099,1920 L1438.99099,1218.73874 C1438.99099,1101.02102 1396.82883,1078.67868 1318.87087,1078.67868 C1244.75676,1078.67868 1198.75075,1102.1021 1198.75075,1218.73874 L1198.75075,1218.73874 L1198.75075,1920 L715.147147,1915.7958 L715.147147,601.321321 L1168,601.321321 Z M480.48048,600.528529 L480.48048,1919.44745 L0,1919.44745 L0,600.528529 L480.48048,600.528529 Z M360.36036,720.648649 L120.12012,720.648649 L120.12012,1799.32733 L360.36036,1799.32733 L360.36036,720.648649 Z M1047.87988,721.441441 L835.267267,721.441441 L835.267267,1796.75676 L1078.63063,1798.91892 L1078.63063,1218.73874 C1078.63063,992.312312 1229.14114,958.558559 1318.87087,958.558559 C1428.42042,958.558559 1559.11111,1003.72372 1559.11111,1218.73874 L1559.11111,1218.73874 L1559.11111,1798.91892 L1796.22823,1796.75676 L1796.22823,1182.58258 C1796.22823,849.249249 1702.65465,725.285285 1450.64264,725.285285 C1299.17117,725.285285 1233.58559,770.21021 1169.32132,824.264264 L1169.32132,824.264264 L1152.62462,838.438438 L1047.87988,838.438438 L1047.87988,721.441441 Z M240.24024,-2.5243549e-29 C372.732733,-2.5243549e-29 480.48048,107.747748 480.48048,240.24024 C480.48048,372.732733 372.732733,480.48048 240.24024,480.48048 C107.747748,480.48048 0,372.732733 0,240.24024 C0,107.747748 107.747748,-2.5243549e-29 240.24024,-2.5243549e-29 Z M240.24024,120.12012 C174.054054,120.12012 120.12012,174.054054 120.12012,240.24024 C120.12012,306.426426 174.054054,360.36036 240.24024,360.36036 C306.426426,360.36036 360.36036,306.426426 360.36036,240.24024 C360.36036,174.054054 306.426426,120.12012 240.24024,120.12012 Z" stroke="none" stroke-width="1" fill-rule="evenodd"/>
</svg>

<svg viewBox="0 0 1920 1920" version="1.1" xmlns="http://www.w3.org/2000/svg">
    <path d="M0 1919.447V600.53h480.48v1318.918H0zm120.12-120.12h240.24V720.65H120.12v1078.678zM1450.643 605.165c412.852 0 465.705 308.589 465.705 577.418v733.213L1438.991 1920v-701.261c0-117.718-42.162-140.06-120.12-140.06-74.114 0-120.12 23.423-120.12 140.06V1920l-483.604-4.204V601.32H1168v74.955c72.312-44.925 155.796-71.11 282.643-71.11zm345.585 1191.592v-614.174c0-333.334-93.573-457.298-345.585-457.298-151.472 0-217.057 44.925-281.322 98.98l-16.696 14.173H1047.88V721.441H835.267v1075.316l243.364 2.162v-580.18c0-226.427 150.51-260.18 240.24-260.18 109.55 0 240.24 45.165 240.24 260.18v580.18l237.117-2.162zM240.24 0c132.493 0 240.24 107.748 240.24 240.24 0 132.493-107.747 240.24-240.24 240.24C107.748 480.48 0 372.733 0 240.24 0 107.748 107.748 0 240.24 0zm0 360.36c66.186 0 120.12-53.934 120.12-120.12s-53.934-120.12-120.12-120.12-120.12 53.934-120.12 120.12 53.934 120.12 120.12 120.12z" stroke="none" stroke-width="1" fill-rule="evenodd"/>
</svg>
